frontend/public/svg/interface/zoom-out.svg

<svg width="159" height="154" viewBox="0 0 159 154" fill="none" xmlns="http://www.w3.org/2000/svg">
<g clip-path="url(#clip0)">
<path d="M154.779 142.458C152.264 139.504 149.475 136.556 146.256 133.445C133.915 121.518 121.335 109.429 109.168 97.7371L99.3713 88.3217C98.2692 87.2632 97.1522 86.2183 96.0644 85.2027L95.0052 84.2098L95.0384 84.1449C95.0878 84.0383 95.145 83.9363 95.2107 83.8388C95.5611 83.4405 95.9363 83.0474 96.3251 82.6698C103.581 75.5995 107.548 66.75 108.116 56.3616C109.1 38.3741 102.984 23.1158 89.9375 11.0102C83.6325 5.0228 75.4834 1.34732 66.8194 0.583593C58.1679 -0.273856 49.4329 0.718459 41.1947 3.49464C28.7946 7.74168 18.6429 15.4963 10.1597 27.2035C2.62383 37.6047 -0.36515 49.0865 1.27662 61.3305C2.42423 69.8859 5.9945 77.9192 12.5135 86.6121C17.0161 92.6168 22.6508 96.741 29.2595 98.8717C34.5154 100.57 39.9921 101.49 45.5147 101.601C59.5592 101.895 73.3358 98.1342 86.5005 90.4602C87.072 90.1268 87.6475 89.798 88.2158 89.4731L88.5194 89.299C89.5994 90.503 90.6657 91.698 91.7178 92.8832C94.2815 95.7631 96.7029 98.4818 99.2374 101.2C112.215 115.117 126.291 128.354 139.903 141.155C142.434 143.538 144.964 145.921 147.492 148.303C149.068 149.708 150.76 150.976 152.55 152.095L153.476 152.714C154.148 153.178 154.941 153.439 155.758 153.464C156.139 153.474 156.517 153.395 156.861 153.233C157.206 153.071 157.508 152.83 157.743 152.531C158.493 151.578 158.978 149.711 158.483 148.553C157.554 146.35 156.307 144.296 154.779 142.458ZM53.347 12.2655C54.7775 12.1091 56.2064 11.9506 57.6338 11.7899C77.4405 11.1141 89.2606 24.6466 93.7132 37.5332C96.8017 46.4743 97.435 54.045 95.7074 61.3597C94.604 66.2497 92.1963 70.7501 88.7405 74.3824C83.8561 79.5586 77.7045 83.395 69.3812 86.4536C59.5607 90.1697 48.9678 91.3796 38.5614 89.9741C30.3428 88.8805 24.1268 85.2144 19.5545 78.7633C15.2983 72.7586 12.7222 67.4362 11.4458 62.0121C9.67648 54.7328 10.1844 47.0861 12.901 40.1044C17.4004 28.4225 25.2393 19.987 36.2005 15.0336C38.1563 14.1499 40.4606 13.8348 42.6889 13.5294L42.7877 13.5164C46.2956 13.0362 49.8808 12.6443 53.3483 12.2655H53.347Z" fill="black"/>
<path d="M24.17 48.4609C22.3241 48.663 21.2195 49.8962 21.3554 51.6045C21.449 52.7741 22.0881 54.1725 24.5998 54.1738C28.7891 54.1738 32.979 54.177 37.1488 54.177H47.8083C50.3549 54.0904 52.8907 54.0081 55.4157 53.9302C62.0478 53.719 68.9106 53.5007 75.6266 53.1862C77.5896 53.0291 79.533 52.6845 81.4303 52.1569C81.8159 52.0633 82.2008 51.9692 82.5851 51.8788C82.9934 51.7938 83.3803 51.6264 83.7223 51.3867C84.0637 51.147 84.3524 50.8402 84.5708 50.485C84.7366 50.1976 84.8394 49.8784 84.8732 49.5484C84.907 49.2183 84.8706 48.8849 84.7659 48.57C84.55 48.0316 84.2171 47.5479 83.7906 47.1545C83.3641 46.7611 82.8549 46.4677 82.3003 46.2958C80.8296 45.9733 79.3185 45.871 77.8172 45.9923C75.4764 46.0989 73.0999 46.2411 70.8021 46.3789C67.9769 46.5478 65.0563 46.722 62.1844 46.8337C57.0172 47.0326 51.7603 47.1983 46.677 47.3588C42.1815 47.5011 37.6859 47.6421 33.1911 47.8078C30.1279 47.9202 27.0934 48.1399 24.17 48.4609Z" fill="black"/>
</g>
<defs>
<clipPath id="clip0">
<rect width="158" height="154" fill="white" transform="translate(0.777344)"/>
</clipPath>
</defs>
</svg>

<svg xmlns="http://www.w3.org/2000/svg" width="159" height="154" fill="none" viewBox="0 0 159 154"><g fill="#000" clip-path="url(#a)"><path d="M154.779 142.458c-2.515-2.954-5.304-5.902-8.523-9.013a18149 18149 0 0 0-37.088-35.708l-9.797-9.415a322 322 0 0 0-3.307-3.12l-1.059-.992.033-.065q.075-.16.173-.306c.35-.398.725-.792 1.114-1.17 7.256-7.07 11.223-15.919 11.791-26.307.984-17.988-5.132-33.246-18.178-45.352A38.48 38.48 0 0 0 66.819.584a61.3 61.3 0 0 0-25.624 2.91c-12.4 4.248-22.552 12.002-31.035 23.71C2.624 37.604-.365 49.087 1.277 61.33c1.147 8.555 4.718 16.588 11.237 25.281 4.502 6.005 10.137 10.129 16.746 12.26a56.6 56.6 0 0 0 16.255 2.729c14.044.294 27.82-3.467 40.986-11.14.571-.334 1.146-.663 1.715-.988l.303-.174a927 927 0 0 1 3.199 3.584c2.563 2.88 4.985 5.599 7.52 8.317 12.977 13.917 27.053 27.154 40.665 39.955l7.589 7.148a37.4 37.4 0 0 0 5.058 3.792l.926.619a4.25 4.25 0 0 0 2.282.75 2.44 2.44 0 0 0 1.985-.933c.75-.953 1.235-2.82.74-3.978a24.3 24.3 0 0 0-3.704-6.095M53.347 12.266q2.146-.235 4.287-.476c19.807-.676 31.627 12.857 36.08 25.743 3.088 8.941 3.721 16.512 1.993 23.827a27.76 27.76 0 0 1-6.966 13.022c-4.885 5.177-11.037 9.013-19.36 12.072a63.2 63.2 0 0 1-30.82 3.52c-8.218-1.094-14.434-4.76-19.006-11.21-4.257-6.005-6.833-11.328-8.11-16.752a36.6 36.6 0 0 1 1.456-21.908c4.5-11.681 12.338-20.117 23.3-25.07 1.955-.884 4.26-1.2 6.488-1.505l.099-.013c3.508-.48 7.093-.872 10.56-1.25z"/><path d="M24.17 48.46c-1.846.203-2.95 1.436-2.815 3.145.094 1.17.733 2.568 3.245 2.569 4.19 0 8.379.003 12.549.003h10.66q3.82-.13 7.607-.247c6.632-.211 13.495-.43 20.21-.744a31 31 0 0 0 5.804-1.03q.578-.14 1.155-.277a3.07 3.07 0 0 0 1.986-1.394 2.35 2.35 0 0 0 .195-1.915 3.9 3.9 0 0 0-2.466-2.274 15.2 15.2 0 0 0-4.483-.304c-2.34.107-4.717.25-7.015.387-2.825.169-5.746.343-8.618.455-5.167.199-10.424.364-15.507.525-4.495.142-8.991.283-13.486.449a125 125 0 0 0-9.021.653"/></g><defs><clipPath id="a"><path fill="#fff" d="M.777 0h158v154h-158z"/></clipPath></defs></svg>
